logos/fly-icon.svg

<?xml version="1.0" encoding="UTF-8"?>
<svg width="256px" height="231px" viewBox="0 0 256 231" version="1.1" xmlns="http://www.w3.org/2000/svg" preserveAspectRatio="xMidYMid">
    <title>Fly</title>
    <defs>
        <radialGradient cx="53.095502%" cy="49.5644668%" fx="53.095502%" fy="49.5644668%" r="93.3475634%" gradientTransform="translate(0.530955,0.495645),scale(0.776037,1.000000),translate(-0.530955,-0.495645)" id="flyRadialGradient-1">
            <stop stop-color="#BA7BF0" offset="0%"></stop>
            <stop stop-color="#996BEC" offset="45%"></stop>
            <stop stop-color="#5046E4" offset="100%"></stop>
        </radialGradient>
    </defs>
    <g>
        <path d="M179.015724,31.5981633 L208.493624,31.5981633 C234.713177,31.5981633 256,52.8849859 256,79.1045394 L256,182.757366 C256,208.976919 234.713177,230.263742 208.493624,230.263742 L206.170688,230.263742 C192.675834,228.152832 186.823283,224.105623 182.302133,220.685139 L144.823356,189.869603 C142.888438,188.304709 140.123096,188.304709 138.188178,189.869603 L126.012253,199.881612 L91.7201077,171.685225 C89.7874529,170.117244 87.0207027,170.117244 85.0880479,171.685225 L37.4475963,213.594729 C27.8596397,221.392933 21.5175572,219.952401 17.4048695,219.500286 C6.78172539,210.782261 1.7723975e-13,197.555558 1.7723975e-13,182.757366 L1.7723975e-13,79.1045394 C1.7723975e-13,52.8849859 21.2868226,31.5981633 47.5094942,31.5981633 L76.9219152,31.5981633 L76.8689086,31.7166486 L75.8773735,34.6070667 L75.5686881,35.5986018 L74.2341693,41.5197496 L74.0502052,42.5580551 L73.4640147,48.4885571 L73.3860638,50.1161712 L73.3735917,50.6867715 L73.4297163,53.4056977 L73.5637918,54.9990134 L73.8943035,57.4934412 L74.3152382,59.7384261 L74.8141237,61.8056831 L75.4626749,64.044432 L77.1464137,68.7838447 L77.7014238,70.2056685 L80.6323764,76.3980853 L81.6675639,78.3000865 L85.0568676,84.1183392 L86.35397,86.2167765 L91.0840286,93.1824659 L91.7668782,94.1054042 L97.9218786,102.115635 L99.9111847,104.582001 L106.939235,112.798022 L108.382885,114.378866 L114.176193,120.611817 L116.471067,122.987759 L120.262597,126.754345 L119.501797,127.390424 L119.027855,127.817595 C117.740107,129.018038 116.517837,130.293314 115.373519,131.634069 C114.823615,132.282586 114.299382,132.95244 113.802029,133.642084 C113.043345,134.695591 112.364825,135.804571 111.772189,136.959673 C111.469251,137.559446 111.197617,138.174525 110.958382,138.802431 C110.341268,140.406623 109.970188,142.094882 109.857715,143.809995 L109.835889,145.291061 C109.889724,147.379425 110.31523,149.441491 111.092457,151.380583 C111.879818,153.346447 113.028339,155.147489 114.478643,156.690596 C115.532538,157.813088 116.732982,158.792151 118.048792,159.596604 C119.168167,160.282572 120.362374,160.846936 121.603352,161.277225 C124.300906,162.19158 127.16315,162.516932 129.997101,162.231344 L130.012691,162.231344 C132.43049,161.996821 134.780567,161.299208 136.934728,160.176559 C137.863903,159.683909 138.749425,159.113309 139.578822,158.464758 C141.953856,156.616352 143.794126,154.169117 144.910661,151.374347 C145.783711,149.194841 146.210881,146.865669 146.173465,144.520907 L146.104868,143.295519 C145.946598,141.676778 145.560297,140.088537 144.957432,138.577933 C144.696242,137.920037 144.399594,137.276779 144.068792,136.650987 C143.454989,135.49822 142.756722,134.392455 141.979708,133.342752 C141.624124,132.862412 141.256071,132.391429 140.875924,131.930283 C139.610396,130.419568 138.248064,128.992661 136.797535,127.658575 L135.771701,126.785525 L137.508447,125.070606 L144.973022,117.27552 L147.554754,114.441226 L151.567665,109.926312 L154.17746,106.873756 L157.900393,102.340134 L160.419765,99.1722105 L164.120873,94.2238895 L165.988575,91.663983 L168.638905,87.700961 L170.846473,84.3241294 L175.005932,77.0809349 L177.384992,72.3290501 L177.453589,72.1825025 L179.274521,67.7736015 C179.298553,67.7166087 179.319373,67.658314 179.336882,67.5989915 L181.298126,61.4814075 L181.503916,60.5896496 L182.355139,55.7192794 L182.520395,54.4003508 L182.570284,53.5927798 L182.629526,50.5433419 L182.613936,49.9758596 L182.458034,47.2444612 L182.264716,45.1241977 L181.298126,39.0097317 C181.282535,38.9286628 181.266945,38.8475939 181.242001,38.766525 L180.001023,34.2453747 L179.573852,32.9888067 L179.015724,31.5981633 L179.015724,31.5981633 Z M193.028172,160.85629 C186.848056,160.943442 181.859218,165.932279 181.772067,172.112395 C181.862519,178.290605 186.849938,183.276642 193.028172,183.365383 C199.206248,183.275056 204.193646,178.29042 204.287395,172.112395 C204.198572,165.931775 199.208817,160.943401 193.028172,160.85629 L193.028172,160.85629 Z" fill="url(#flyRadialGradient-1)"></path>
        <path d="M102.630111,230.263785 L47.5094942,230.263785 C36.5295537,230.278541 25.8864388,226.473255 17.4048695,219.500286 C21.5175572,219.952401 27.8596397,221.392933 37.4475963,213.594729 L85.0880479,171.685225 C87.0207027,170.117244 89.7874529,170.117244 91.7201077,171.685225 L126.012253,199.881612 L138.188178,189.869603 C140.123096,188.304709 142.888438,188.304709 144.823356,189.869603 L182.302133,220.685139 C186.823283,224.105623 192.675834,228.152832 206.170688,230.263785 L181.238883,230.263785 C179.03631,230.236593 176.896925,229.523828 175.118181,228.224547 L174.681656,227.887799 L141.699085,200.498983 L109.149921,227.887799 C107.311666,229.400946 105.01091,230.239385 102.630111,230.263785 Z M193.028172,160.85629 C186.848056,160.943442 181.859218,165.932279 181.772067,172.112395 C181.862519,178.290605 186.849938,183.276642 193.028172,183.365383 C199.206248,183.275056 204.193646,178.29042 204.287395,172.112395 C204.198572,165.931775 199.208817,160.943401 193.028172,160.85629 L193.028172,160.85629 Z M120.262597,126.754345 L116.471067,122.987759 L114.176193,120.611817 L108.382885,114.378866 L106.939235,112.798022 L99.9111847,104.582001 L97.9218786,102.115635 L91.7668782,94.1054042 L91.0840286,93.1824659 L86.35397,86.2167765 L85.0568676,84.1183392 L81.6675639,78.3000865 L80.6323764,76.3980853 L77.7014238,70.2056685 L77.1464137,68.7838447 L75.4626749,64.044432 L74.8141237,61.8056831 L74.3152382,59.7384261 L73.8943035,57.4934412 L73.5637918,54.9990134 L73.4297163,53.4056977 L73.3735917,50.6867715 L73.3860638,50.1161712 L73.4640147,48.4885571 L74.0502052,42.5580551 L74.2341693,41.5197496 L75.5686881,35.5986018 L75.8773735,34.6070667 L76.8689086,31.7166486 L77.1869481,30.9683203 L78.7646736,27.5010657 L79.8591038,25.4369268 L81.3838228,22.9237908 L82.9023056,20.685042 L83.9842637,19.2632182 L85.2314775,17.7603254 L86.6034128,16.2511967 L87.7789119,15.0694615 L90.6412677,12.5500895 L92.7334689,10.8382885 C92.7833575,10.794636 92.8363641,10.7572196 92.8893707,10.7198032 L95.3650902,9.04541856 L97.3325701,7.79196862 L101.067976,5.82448875 C101.1241,5.79019037 101.189579,5.76212806 101.248822,5.73406575 L106.546362,3.53585131 L107.035894,3.35188726 L111.744126,1.97371594 L113.733432,1.52783699 L116.421178,0.988416988 L118.204694,0.717147973 L120.939211,0.377282194 L122.803795,0.212026357 L126.504902,0.0155901733 L127.954788,0 L130.701777,0.0561246239 L131.415807,0.0966590746 L135.394419,0.427170749 L140.657662,1.169263 L141.265678,1.29710242 L146.46656,2.59108681 L147.994397,3.04631987 L149.690608,3.63251038 L151.757865,4.41513708 L153.391715,5.10734078 L155.792602,6.23918736 L157.304849,7.01557799 L160.023775,8.61201174 L161.037136,9.23561867 L164.744479,11.9420728 L165.807729,12.865011 L168.39258,15.2191272 L168.520419,15.3469666 L170.712398,17.6979648 L171.466962,18.5491882 L174.039341,21.9665542 L174.563171,22.7834793 L176.605483,26.2320256 L177.219736,27.4137608 L178.370291,29.9861394 L179.573852,32.9888067 L180.001023,34.2453747 L181.242001,38.766525 C181.265137,38.8465079 181.283874,38.9276985 181.298126,39.0097317 L182.264716,45.1241977 L182.458034,47.2444612 L182.613936,49.9758596 L182.629526,50.5433419 L182.570284,53.5927798 L182.520395,54.4003508 L182.355139,55.7192794 L181.503916,60.5896496 L181.298126,61.4814075 L179.336882,67.5989915 C179.319373,67.658314 179.298553,67.7166087 179.274521,67.7736015 L177.453589,72.1825025 L177.384992,72.3290501 L175.005932,77.0809349 L170.846473,84.3241294 L168.638905,87.700961 L165.988575,91.663983 L164.120873,94.2238895 L160.419765,99.1722105 L157.900393,102.340134 L154.17746,106.873756 L151.567665,109.926312 L147.554754,114.441226 L144.973022,117.27552 L137.508447,125.070606 L135.771701,126.785525 L136.797535,127.658575 C138.247421,128.993094 139.610002,130.418036 140.875924,131.930283 C141.256324,132.391752 141.624252,132.862575 141.979708,133.342752 C142.756722,134.392455 143.454989,135.49822 144.068792,136.650987 C144.399303,137.274594 144.695517,137.920027 144.957432,138.577933 C145.552976,140.087061 145.955203,141.683495 146.104868,143.295519 L146.173465,144.520907 C146.211741,146.866572 145.782456,149.19637 144.910661,151.374347 C143.794126,154.169117 141.953856,156.616352 139.578822,158.464758 C138.749425,159.113309 137.863903,159.683909 136.934728,160.176559 C134.780567,161.299208 132.43049,161.996821 130.012691,162.231344 L129.997101,162.231344 C127.16315,162.516932 124.300906,162.19158 121.603352,161.277225 C120.361442,160.846638 119.169677,160.283163 118.048792,159.596604 C116.734053,158.792074 115.533278,157.814674 114.478643,156.690596 C113.028339,155.147489 111.879818,153.346447 111.092457,151.380583 C110.31523,149.441491 109.889724,147.379425 109.835889,145.291061 L109.857715,143.809995 C109.970188,142.094882 110.341268,140.406623 110.958382,138.802431 C111.19847,138.172588 111.469739,137.558335 111.772189,136.959673 C112.364615,135.802882 113.044347,134.695979 113.802029,133.642084 C114.297797,132.952998 114.824745,132.282621 115.373519,131.634069 C116.517837,130.293314 117.740107,129.018038 119.027855,127.817595 L119.501797,127.390424 L120.262597,126.754345 L120.262597,126.754345 Z" fill="#000000"></path>
        <path d="M141.699085,200.498983 L174.681656,227.887799 C176.566346,229.421574 178.921212,230.260475 181.351132,230.263742 L102.517862,230.263742 C104.937457,230.263742 107.282219,229.424991 109.149921,227.887799 L141.699085,200.498983 Z M128.163697,135.859006 L128.463028,135.946311 C128.559687,135.993082 128.640756,136.061679 128.728061,136.120921 L128.977504,136.342302 C129.594875,136.909784 130.193537,137.505329 130.770374,138.116463 C131.175718,138.54987 131.571709,138.995749 131.952109,139.457218 C132.435404,140.040291 132.887519,140.651426 133.2991,141.287505 C133.476828,141.568128 133.642084,141.851869 133.797985,142.148082 C133.932061,142.403761 134.053664,142.668794 134.159677,142.936945 C134.34676,143.40465 134.487071,143.8973 134.530724,144.399303 L134.521369,145.34095 C134.395548,147.065393 133.447455,148.623885 131.973935,149.52847 C131.031128,150.098132 129.971482,150.446728 128.874609,150.548068 L127.711582,150.582366 L126.729401,150.495061 C126.270179,150.428065 125.818193,150.318461 125.379292,150.167667 C124.932554,150.015453 124.50386,149.814699 124.100898,149.569005 L123.333861,149.007759 C122.430626,148.235695 121.81522,147.180712 121.587762,146.014445 C121.549781,145.818246 121.519616,145.620615 121.497339,145.422019 L121.469276,144.524025 C121.484867,144.280818 121.522283,144.040729 121.57529,143.800641 C121.709365,143.276811 121.902683,142.768571 122.14589,142.285276 C122.460228,141.678782 122.818729,141.096218 123.218494,140.542294 C123.882635,139.6443 124.602901,138.789959 125.373056,137.982388 C125.868823,137.458558 126.377063,136.950319 126.907129,136.460787 L127.284411,136.120921 C127.546326,135.946311 127.549444,135.946311 127.848775,135.859006 L128.163697,135.859006 L128.163697,135.859006 Z M126.233633,10.6636786 L126.355237,10.6543244 L126.355237,115.635434 L126.093322,115.152138 C122.63777,108.759172 119.420859,102.240064 116.449241,95.6082969 C114.037956,90.2411122 111.854426,84.7744837 109.904486,79.2230247 C108.345881,74.8006804 107.029162,70.2967721 105.960172,65.7312887 C105.130775,62.1050144 104.494696,58.4257335 104.232781,54.7090362 C104.132522,53.1230225 104.102352,51.533355 104.142358,49.9446792 C104.167302,48.5602719 104.223427,47.1789825 104.310732,45.7976931 C104.447925,43.624423 104.669306,41.4573889 104.987345,39.305945 C105.239906,37.6128521 105.551709,35.9259954 105.938346,34.2578469 C106.243913,32.9326821 106.599369,31.6168715 107.004714,30.3228871 C107.590904,28.4520663 108.292462,26.624898 109.109387,24.8413822 C109.408718,24.199067 109.729876,23.5598699 110.066624,22.933145 C112.093346,19.1790312 114.843453,15.7211308 118.444783,13.4075491 C120.785242,11.8851635 123.455755,10.9443905 126.233633,10.6636786 L126.233633,10.6636786 Z M139.846973,10.9287115 L146.909321,12.9429619 C150.18014,14.1496413 153.329355,15.7242488 156.222891,17.6886106 C160.166898,20.3506259 163.566176,23.7414368 166.238018,27.6787937 C167.80639,30.0110836 169.103492,32.5273376 170.116853,35.1558408 C171.585448,39.0440301 172.495914,43.1193014 172.817071,47.2631694 C172.910612,48.3482455 172.963619,49.4364396 172.985445,50.5246337 C173.010389,51.5348769 173.004153,52.5482382 172.923084,53.5584814 C172.7225,55.8192746 172.297391,58.05449 171.654044,60.2310756 C171.136566,62.0122548 170.525624,63.7649397 169.823758,65.481846 C168.950708,67.6176997 167.980999,69.713019 166.91775,71.7584498 C164.563633,76.3045443 161.854061,80.6542026 158.954289,84.8604314 C155.359605,90.0300045 151.527599,95.0304454 147.470567,99.845706 C143.064633,105.100057 138.469794,110.193069 133.69509,115.114722 C136.935179,109.039399 139.959482,102.851433 142.762335,96.5624155 C144.321352,93.0577445 145.789947,89.5156572 147.171236,85.9392714 C148.690619,82.0109037 150.060421,78.026308 151.277688,73.9940806 C152.181918,70.972705 152.980135,67.9201491 153.63804,64.8332948 C154.202404,62.1860833 154.645165,59.5108096 154.919552,56.8199457 C155.150287,54.5749607 155.234474,52.3175036 155.178349,50.0662826 C155.157066,48.688214 155.106126,47.3107631 155.025565,45.9348867 C154.695054,40.3972571 153.853184,34.8783357 152.238042,29.5683227 C151.626506,27.5550581 150.882799,25.5843371 150.011766,23.6690011 C147.944509,19.1665591 145.060327,14.9572123 141.156547,11.8859481 L139.846973,10.9287115 L139.846973,10.9287115 Z" fill="#FFFFFF"></path>
    </g>
</svg>

<svg preserveAspectRatio="xMidYMid" viewBox="0 0 256 231" xmlns="http://www.w3.org/2000/svg">
  <defs>
    <radialGradient id="fly-icon_svg__a" cx="53.096%" cy="49.564%" r="93.348%" fx="53.096%" fy="49.564%" gradientTransform="matrix(.77604 0 0 1 .119 0)">
      <stop offset="0%" stop-color="#BA7BF0"/>
      <stop offset="45%" stop-color="#996BEC"/>
      <stop offset="100%" stop-color="#5046E4"/>
    </radialGradient>
  </defs>
  <path fill="url(#fly-icon_svg__a)" d="M179.016 31.598h29.478c26.22 0 47.506 21.287 47.506 47.507v103.652c0 26.22-21.287 47.507-47.506 47.507h-2.323c-13.495-2.111-19.348-6.158-23.869-9.579l-37.479-30.815a5.276 5.276 0 0 0-6.635 0l-12.176 10.012-34.292-28.197a5.263 5.263 0 0 0-6.632 0l-47.64 41.91c-9.588 7.798-15.93 6.357-20.043 5.905C6.782 210.782 0 197.556 0 182.757V79.105c0-26.22 21.287-47.507 47.51-47.507h29.412l-.053.119-.992 2.89-.308.992-1.335 5.92-.184 1.04-.586 5.93-.078 1.627-.012.57.056 2.72.134 1.593.33 2.494.421 2.245.5 2.068.648 2.238 1.683 4.74.555 1.422 2.931 6.192 1.036 1.902 3.389 5.818 1.297 2.099 4.73 6.965.683.923 6.155 8.01 1.99 2.467 7.027 8.216 1.444 1.58 5.793 6.234 2.295 2.376 3.792 3.766-.761.636-.474.428a46.423 46.423 0 0 0-3.654 3.816 32.49 32.49 0 0 0-1.572 2.008 25.939 25.939 0 0 0-2.03 3.318c-.303.6-.574 1.215-.814 1.842a17.056 17.056 0 0 0-1.1 5.008l-.022 1.481c.054 2.088.48 4.15 1.256 6.09a16.962 16.962 0 0 0 3.387 5.31 17.222 17.222 0 0 0 3.57 2.906c1.12.686 2.313 1.25 3.554 1.68a19.91 19.91 0 0 0 8.394.954h.016a18.933 18.933 0 0 0 6.922-2.054 17.902 17.902 0 0 0 2.644-1.712 16.956 16.956 0 0 0 5.332-7.09c.873-2.18 1.3-4.51 1.262-6.854l-.068-1.225a17.258 17.258 0 0 0-1.148-4.718 19.594 19.594 0 0 0-.888-1.927 26.472 26.472 0 0 0-2.09-3.308c-.355-.48-.723-.952-1.103-1.413a45.505 45.505 0 0 0-4.078-4.271l-1.026-.873 1.736-1.715 7.465-7.795 2.582-2.835 4.013-4.515 2.61-3.052 3.722-4.534 2.52-3.168 3.7-4.948 1.869-2.56 2.65-3.963 2.207-3.377 4.16-7.243 2.379-4.752.069-.146 1.82-4.41c.025-.056.045-.115.063-.174l1.961-6.118.206-.891.851-4.87.165-1.32.05-.807.06-3.05-.016-.567-.156-2.732-.193-2.12-.967-6.114a2.129 2.129 0 0 0-.056-.243l-1.241-4.522-.427-1.256-.558-1.39Zm14.012 129.258c-6.18.087-11.169 5.076-11.256 11.256.09 6.179 5.078 11.165 11.256 11.253 6.178-.09 11.166-5.075 11.26-11.253-.09-6.18-5.08-11.169-11.26-11.256Z"/>
  <path d="M102.63 230.264H47.51A47.304 47.304 0 0 1 17.404 219.5c4.113.452 10.455 1.893 20.043-5.905l47.64-41.91a5.263 5.263 0 0 1 6.632 0l34.292 28.197 12.176-10.012a5.276 5.276 0 0 1 6.635 0l37.48 30.815c4.52 3.42 10.373 7.468 23.868 9.579h-24.932a10.599 10.599 0 0 1-6.12-2.04l-.437-.336-32.983-27.389-32.55 27.389a10.427 10.427 0 0 1-6.519 2.376Zm90.398-69.408c-6.18.087-11.169 5.076-11.256 11.256.09 6.179 5.078 11.165 11.256 11.253 6.178-.09 11.166-5.075 11.26-11.253-.09-6.18-5.08-11.169-11.26-11.256Zm-72.765-34.102-3.792-3.766-2.295-2.376-5.793-6.233-1.444-1.581-7.028-8.216-1.99-2.466-6.154-8.01-.683-.924-4.73-6.965-1.297-2.099-3.39-5.818-1.035-1.902-2.93-6.192-.556-1.422-1.683-4.74-.649-2.238-.499-2.068-.42-2.245L73.563 55l-.134-1.593-.056-2.72.012-.57.078-1.627.586-5.93.184-1.04 1.335-5.92.308-.992.992-2.89.318-.749 1.578-3.467 1.094-2.064 1.525-2.513 1.518-2.239 1.082-1.422 1.247-1.503 1.372-1.509 1.176-1.182 2.862-2.519 2.092-1.712c.05-.043.103-.08.156-.118l2.476-1.675 1.968-1.253 3.735-1.968c.056-.034.122-.062.18-.09l5.298-2.198.49-.184 4.708-1.378 1.99-.446 2.687-.54 1.784-.27 2.734-.34 1.865-.166 3.7-.196 1.45-.016 2.748.056.714.04 3.978.331 5.264.742.608.128 5.2 1.294 1.528.455 1.697.587 2.067.782 1.634.692 2.4 1.132 1.513.777 2.719 1.596 1.013.624 3.707 2.706 1.064.923 2.585 2.354.127.128 2.192 2.351.755.851 2.572 3.418.524.816 2.042 3.449.615 1.182 1.15 2.572 1.204 3.003.427 1.256 1.241 4.522c.023.08.042.16.056.243l.967 6.114.193 2.12.156 2.732.016.567-.06 3.05-.05.807-.165 1.32-.851 4.87-.206.891-1.961 6.118c-.018.06-.038.118-.062.175l-1.821 4.409-.069.146-2.38 4.752-4.159 7.243-2.207 3.377-2.65 3.963-1.868 2.56-3.701 4.948-2.52 3.168-3.723 4.534-2.61 3.052-4.012 4.515-2.582 2.835-7.465 7.795-1.736 1.715 1.026.873a45.503 45.503 0 0 1 4.078 4.271c.38.462.748.933 1.104 1.413a26.472 26.472 0 0 1 2.089 3.308c.33.624.627 1.269.888 1.927.596 1.51.998 3.105 1.148 4.718l.068 1.225a17.667 17.667 0 0 1-1.262 6.853 16.956 16.956 0 0 1-5.332 7.09 17.86 17.86 0 0 1-2.644 1.713 18.933 18.933 0 0 1-6.922 2.054h-.016a19.924 19.924 0 0 1-8.394-.954 18.253 18.253 0 0 1-3.554-1.68 17.22 17.22 0 0 1-3.57-2.906 16.962 16.962 0 0 1-3.387-5.31 17.586 17.586 0 0 1-1.256-6.09l.022-1.481a17.056 17.056 0 0 1 1.1-5.008c.24-.63.512-1.244.814-1.842a25.938 25.938 0 0 1 2.03-3.318 32.364 32.364 0 0 1 1.572-2.008 46.423 46.423 0 0 1 3.654-3.816l.474-.428.76-.636Z"/>
  <path fill="#FFF" d="m141.7 200.499 32.982 27.389a10.589 10.589 0 0 0 6.67 2.376h-78.834c2.42 0 4.764-.839 6.632-2.376l32.55-27.389Zm-13.536-64.64.299.087c.097.047.178.116.265.175l.25.221a35.63 35.63 0 0 1 1.792 1.774c.406.434.802.88 1.182 1.341a19.32 19.32 0 0 1 1.347 1.83c.178.281.343.565.499.861.134.256.256.52.362.789.187.468.327.96.37 1.462l-.009.942a5.372 5.372 0 0 1-2.547 4.187 7.29 7.29 0 0 1-3.1 1.02l-1.162.034-.983-.087a7.477 7.477 0 0 1-1.35-.327 6.454 6.454 0 0 1-1.278-.599l-.767-.561a5.263 5.263 0 0 1-1.746-2.994 7.539 7.539 0 0 1-.09-.592l-.029-.898c.016-.243.053-.483.106-.723a7.53 7.53 0 0 1 .57-1.516c.315-.606.674-1.189 1.073-1.743a26.809 26.809 0 0 1 2.155-2.56 32.093 32.093 0 0 1 1.534-1.521l.377-.34c.262-.175.265-.175.565-.262h.315Zm-1.93-125.195.121-.01v104.981l-.262-.483a293.485 293.485 0 0 1-9.644-19.544 208.977 208.977 0 0 1-6.545-16.385 129.208 129.208 0 0 1-3.944-13.492c-.83-3.626-1.465-7.305-1.727-11.022a53.98 53.98 0 0 1-.09-4.764c.024-1.385.08-2.766.168-4.147a78 78 0 0 1 .676-6.492 65.02 65.02 0 0 1 .951-5.048 53.058 53.058 0 0 1 1.067-3.935 46.63 46.63 0 0 1 2.104-5.482c.3-.642.62-1.281.958-1.908 2.026-3.754 4.776-7.212 8.378-9.525a17.514 17.514 0 0 1 7.789-2.744Zm13.613.265 7.062 2.014c3.271 1.207 6.42 2.781 9.314 4.746a37.367 37.367 0 0 1 10.015 9.99 37.714 37.714 0 0 1 3.879 7.477 43.852 43.852 0 0 1 2.7 12.107c.094 1.085.147 2.173.168 3.262.025 1.01.02 2.023-.062 3.033a34.194 34.194 0 0 1-1.269 6.673 52.82 52.82 0 0 1-1.83 5.25 75.765 75.765 0 0 1-2.906 6.277c-2.354 4.547-5.064 8.896-7.964 13.102a204.078 204.078 0 0 1-11.483 14.986 284.101 284.101 0 0 1-13.776 15.269 292.15 292.15 0 0 0 9.067-18.553 230.134 230.134 0 0 0 4.41-10.623 167.053 167.053 0 0 0 4.106-11.945 117.089 117.089 0 0 0 2.36-9.16 74.917 74.917 0 0 0 1.282-8.014c.23-2.245.314-4.502.258-6.754a96.056 96.056 0 0 0-.152-4.131c-.33-5.538-1.173-11.057-2.788-16.367a47.834 47.834 0 0 0-2.226-5.899c-2.067-4.502-4.952-8.712-8.855-11.783l-1.31-.957Z"/>
</svg>
